data/sheikah/v.svg

<!-- Generated by IcoMoon.io -->
<svg version="1.1" xmlns="http://www.w3.org/2000/svg" width="1024" height="1024" viewBox="0 0 1024 1024">
<title></title>
<g id="icomoon-ignore">
</g>
<path d="M153.5 273l119.5-119.5h478l119.5 119.5v79.5l-119.5 119.5h-279v398.5h-119.5v-398.5l119.5-119.5h279v-79.5h-478v597.5l-119.5-119.5v-478zM552 552h119.5v318.5h-119.5v-318.5zM751 552h119.5v199l-119.5 119.5v-318.5z"></path>
</svg>

<svg xmlns="http://www.w3.org/2000/svg" width="1024" height="1024" viewBox="0 0 1024 1024">
  <title/>
  <path d="M153.5 273 273 153.5h478L870.5 273v79.5L751 472H472v398.5H352.5V472L472 352.5h279V273H273v597.5L153.5 751zM552 552h119.5v318.5H552zm199 0h119.5v199L751 870.5z"/>
</svg>
